X: 2
T:C-Dur-Lndler #7
M:3/4
L:1/8
S:j.m. schmalnauer: "tanz musik", bhlau, wien 1996 (compa bd. 5) 
C:trad
R:Lndler
N:ganze Applikatur
K:C
(eg|f2) dd'"t"b2|(ec').c'.e"t"g2|(Df).f.D(G,B)|CccG   (eg|f2) dd'"t"b2|(
ec').c'.e"t"g2|(Df).f.D(G,B)|c4   :|
eg|DffDG,B|CccGEG|"4"F"0"D"0"D"4"FG,B|CccGeg|DffDG,B|CccGEG|"4"F"0"D"0"D
"4"FG,B|C4    ||
